src/images_karasa_jaga_svg/cmd/sc_spacepara1.svg

<svg height="16" width="16" xmlns="http://www.w3.org/2000/svg" xmlns:xlink="http://www.w3.org/1999/xlink"><linearGradient id="a"><stop offset="0" stop-color="#0968ef"/><stop offset="1" stop-color="#aecffc"/></linearGradient><linearGradient id="b" gradientTransform="matrix(-.00049044 -.99999988 .99999988 -.00049044 -8.004837 144.042666)" gradientUnits="userSpaceOnUse" x1="113.15723" x2="39.268185" xlink:href="#a" y1="25.786163" y2="25.786163"/><linearGradient id="c" gradientTransform="matrix(-.00049044 .99999988 .99999988 .00049044 -7.951035 -27.839661)" gradientUnits="userSpaceOnUse" x1="113.15723" x2="39.268185" xlink:href="#a" y1="25.786163" y2="25.786163"/><g transform="matrix(.125 0 0 .125 .003245 0)"><g fill="#404040" fill-opacity=".892019" transform="scale(-1 1)"><path d="m-120 31.999996h72v8.000004h-72z"/><path d="m-120 48h72v8.000004h-72z"/><path d="m-120 64h72v8.000004h-72z"/><path d="m-120 80h72v8.000004h-72z"/></g><g fill-rule="evenodd"><path d="m19.936305 24.028949-19.988228 24.009811 3.976795 3.972883 12.021335-7.80464.0538 19.796997 7.999993-.004-.0538-19.796995 11.827727 7.793019 4.174158-3.976891z" fill="url(#b)"/><path d="m19.990105 92.174056-19.988228-24.009811 3.976795-3.972883 12.021335 7.80464.0538-19.796997 7.999993.004-.0538 19.796995 11.827727-7.793019 4.174158 3.976891z" fill="url(#c)"/></g></g></svg>

<?xml version="1.0" encoding="UTF-8" standalone="no"?>
<!-- Created with Inkscape (http://www.inkscape.org/) -->

<svg
   xmlns:dc="http://purl.org/dc/elements/1.1/"
   xmlns:cc="http://creativecommons.org/ns#"
   xmlns:rdf="http://www.w3.org/1999/02/22-rdf-syntax-ns#"
   xmlns:svg="http://www.w3.org/2000/svg"
   xmlns="http://www.w3.org/2000/svg"
   xmlns:xlink="http://www.w3.org/1999/xlink"
   xmlns:sodipodi="http://sodipodi.sourceforge.net/DTD/sodipodi-0.dtd"
   xmlns:inkscape="http://www.inkscape.org/namespaces/inkscape"
   width="128"
   height="128"
   id="svg3408"
   sodipodi:version="0.32"
   inkscape:version="0.92.3 (unknown)"
   version="1.0"
   sodipodi:docname="sc_spacepara1.svg"
   inkscape:output_extension="org.inkscape.output.svgz.inkscape"
   inkscape:export-filename="/home/rizmut/Dokumen/Rizmut/Github/libreoffice-style-karasa-jaga/build/images_karasa_Jaga/cmd/sc_spacepara1.png"
   inkscape:export-xdpi="12"
   inkscape:export-ydpi="12">
  <defs
     id="defs3410">
    <linearGradient
       id="linearGradient3201">
      <stop
         id="stop3203"
         offset="0"
         style="stop-color:#fbaeff;stop-opacity:1;" />
      <stop
         id="stop3205"
         offset="1"
         style="stop-color:#ffd7d7;stop-opacity:1;" />
    </linearGradient>
    <linearGradient
       inkscape:collect="always"
       xlink:href="#linearGradient3201"
       id="linearGradient3189"
       x1="66.06562"
       y1="92.045761"
       x2="66.06562"
       y2="43.634895"
       gradientUnits="userSpaceOnUse"
       gradientTransform="translate(-4,0)" />
    <linearGradient
       id="linearGradient3195">
      <stop
         id="stop3197"
         offset="0"
         style="stop-color:#99c2fc;stop-opacity:1;" />
      <stop
         id="stop3199"
         offset="1"
         style="stop-color:#dceafe;stop-opacity:1;" />
    </linearGradient>
    <linearGradient
       inkscape:collect="always"
       xlink:href="#linearGradient3195"
       id="linearGradient3193"
       gradientUnits="userSpaceOnUse"
       x1="68"
       y1="112"
       x2="68"
       y2="80"
       gradientTransform="translate(-4,0)" />
    <linearGradient
       inkscape:collect="always"
       id="linearGradient3228">
      <stop
         style="stop-color:#ffffff;stop-opacity:1;"
         offset="0"
         id="stop3230" />
      <stop
         style="stop-color:#ffffff;stop-opacity:0;"
         offset="1"
         id="stop3232" />
    </linearGradient>
    <linearGradient
       inkscape:collect="always"
       xlink:href="#linearGradient3228"
       id="linearGradient3234"
       x1="84"
       y1="60"
       x2="110"
       y2="105.03332"
       gradientUnits="userSpaceOnUse"
       gradientTransform="translate(-4,0)" />
    <linearGradient
       inkscape:collect="always"
       id="linearGradient3220">
      <stop
         style="stop-color:#ffffff;stop-opacity:1;"
         offset="0"
         id="stop3222" />
      <stop
         style="stop-color:#ffffff;stop-opacity:0;"
         offset="1"
         id="stop3224" />
    </linearGradient>
    <linearGradient
       inkscape:collect="always"
       xlink:href="#linearGradient3220"
       id="linearGradient3226"
       x1="92.704826"
       y1="8.8034716"
       x2="120"
       y2="76"
       gradientUnits="userSpaceOnUse"
       gradientTransform="translate(-4,0)" />
    <linearGradient
       id="linearGradient6310">
      <stop
         style="stop-color:#b900c4;stop-opacity:1;"
         offset="0"
         id="stop6312" />
      <stop
         style="stop-color:#ae4300;stop-opacity:1;"
         offset="1"
         id="stop6314" />
    </linearGradient>
    <linearGradient
       inkscape:collect="always"
       xlink:href="#linearGradient6310"
       id="linearGradient3772"
       gradientUnits="userSpaceOnUse"
       x1="32"
       y1="88.468971"
       x2="54.051708"
       y2="6.1708703"
       gradientTransform="translate(-4,0)" />
    <linearGradient
       id="linearGradient3051">
      <stop
         style="stop-color:#0968ef;stop-opacity:1;"
         offset="0"
         id="stop3053" />
      <stop
         style="stop-color:#aecffc;stop-opacity:1;"
         offset="1"
         id="stop3055" />
    </linearGradient>
    <linearGradient
       inkscape:collect="always"
       xlink:href="#linearGradient3051"
       id="linearGradient3768"
       x1="23.5"
       y1="64"
       x2="140.19827"
       y2="32.730793"
       gradientUnits="userSpaceOnUse"
       gradientTransform="translate(-4,0)" />
    <linearGradient
       id="linearGradient3051-4">
      <stop
         style="stop-color:#0968ef;stop-opacity:1;"
         offset="0"
         id="stop3053-8" />
      <stop
         style="stop-color:#aecffc;stop-opacity:1;"
         offset="1"
         id="stop3055-7" />
    </linearGradient>
    <radialGradient
       r="9.3331003"
       fy="28.963078"
       fx="78.720047"
       cy="25.335899"
       cx="78.664696"
       gradientTransform="matrix(3.508002,1.9066247e-7,-2.952602e-7,3.5080019,-197.95592,-66.878401)"
       gradientUnits="userSpaceOnUse"
       id="radialGradient3914"
       xlink:href="#linearGradient3845"
       inkscape:collect="always" />
    <linearGradient
       inkscape:collect="always"
       id="linearGradient3845">
      <stop
         style="stop-color:#ffffff;stop-opacity:1;"
         offset="0"
         id="stop3847" />
      <stop
         style="stop-color:#ffffff;stop-opacity:0;"
         offset="1"
         id="stop3849" />
    </linearGradient>
    <linearGradient
       y2="60"
       x2="47.998501"
       y1="60"
       x1="3.9985001"
       gradientUnits="userSpaceOnUse"
       id="linearGradient3003">
      <stop
         id="stop3005"
         style="stop-color:#245795;stop-opacity:1;"
         offset="0" />
      <stop
         id="stop3007"
         style="stop-color:#afd4ff;stop-opacity:1;"
         offset="1" />
    </linearGradient>
    <linearGradient
       id="linearGradient3009">
      <stop
         id="stop3011"
         offset="0"
         style="stop-color:#9fbde2;stop-opacity:1;" />
      <stop
         id="stop3013"
         offset="1"
         style="stop-color:#ffffff;stop-opacity:1;" />
    </linearGradient>
    <linearGradient
       id="linearGradient3303">
      <stop
         style="stop-color:#ffffff;stop-opacity:0.68345326;"
         offset="0"
         id="stop3305" />
      <stop
         style="stop-color:#ffffff;stop-opacity:0;"
         offset="1"
         id="stop3307" />
    </linearGradient>
    <linearGradient
       id="linearGradient2399-7">
      <stop
         style="stop-color:#9fc5fb;stop-opacity:1"
         offset="0"
         id="stop2401-8" />
      <stop
         style="stop-color:#096df6;stop-opacity:1"
         offset="1"
         id="stop2403-8" />
    </linearGradient>
    <linearGradient
       inkscape:collect="always"
       xlink:href="#linearGradient3051"
       id="linearGradient3358"
       gradientUnits="userSpaceOnUse"
       gradientTransform="rotate(-90.0281,67.983601,76.021789)"
       x1="113.15723"
       y1="25.786163"
       x2="39.268185"
       y2="25.786163" />
    <linearGradient
       inkscape:collect="always"
       xlink:href="#linearGradient3051"
       id="linearGradient18974"
       gradientUnits="userSpaceOnUse"
       gradientTransform="matrix(-4.904375e-4,0.99999988,0.99999988,4.904375e-4,-7.9510348,-27.839661)"
       x1="113.15723"
       y1="25.786163"
       x2="39.268185"
       y2="25.786163" />
  </defs>
  <sodipodi:namedview
     id="base"
     pagecolor="#ffffff"
     bordercolor="#666666"
     borderopacity="1.0"
     inkscape:pageopacity="0.0"
     inkscape:pageshadow="2"
     inkscape:zoom="1.4142136"
     inkscape:cx="1.826296"
     inkscape:cy="136.50867"
     inkscape:document-units="px"
     inkscape:current-layer="layer1"
     height="128px"
     width="128px"
     showborder="true"
     inkscape:showpageshadow="false"
     showgrid="true"
     inkscape:window-width="1366"
     inkscape:window-height="706"
     inkscape:window-x="0"
     inkscape:window-y="0"
     showguides="true"
     inkscape:guide-bbox="true"
     objecttolerance="8"
     gridtolerance="9"
     guidetolerance="10"
     inkscape:window-maximized="1"
     inkscape:snap-page="true">
    <inkscape:grid
       id="GridFromPre046Settings"
       type="xygrid"
       originx="0"
       originy="0"
       spacingx="4"
       spacingy="4"
       color="#0000ff"
       empcolor="#0000ff"
       opacity="0.2"
       empopacity="0.4"
       empspacing="2"
       enabled="true"
       visible="true" />
  </sodipodi:namedview>
  <metadata
     id="metadata3413">
    <rdf:RDF>
      <cc:Work
         rdf:about="">
        <dc:format>image/svg+xml</dc:format>
        <dc:type
           rdf:resource="http://purl.org/dc/dcmitype/StillImage" />
        <dc:title />
      </cc:Work>
    </rdf:RDF>
  </metadata>
  <g
     inkscape:label="Livello 1"
     inkscape:groupmode="layer"
     id="layer1">
    <g
       id="g3172">
      <rect
         transform="scale(-1,1)"
         ry="0"
         rx="0"
         y="31.999996"
         x="-120"
         height="8.0000038"
         width="72"
         id="rect2970"
         style="opacity:1;fill:#404040;fill-opacity:0.89201882;stroke:none;stroke-width:7.7436676;stroke-linecap:round;stroke-linejoin:bevel;stroke-miterlimit:4;stroke-dasharray:none;stroke-dashoffset:0;stroke-opacity:1" />
      <rect
         style="opacity:1;fill:#404040;fill-opacity:0.89201882;stroke:none;stroke-width:7.7436676;stroke-linecap:round;stroke-linejoin:bevel;stroke-miterlimit:4;stroke-dasharray:none;stroke-dashoffset:0;stroke-opacity:1"
         id="rect15242"
         width="72"
         height="8.0000038"
         x="-120"
         y="48"
         rx="0"
         ry="0"
         transform="scale(-1,1)" />
      <rect
         transform="scale(-1,1)"
         ry="0"
         rx="0"
         y="64"
         x="-120"
         height="8.0000038"
         width="72"
         id="rect15244"
         style="opacity:1;fill:#404040;fill-opacity:0.89201882;stroke:none;stroke-width:7.7436676;stroke-linecap:round;stroke-linejoin:bevel;stroke-miterlimit:4;stroke-dasharray:none;stroke-dashoffset:0;stroke-opacity:1" />
      <rect
         style="opacity:1;fill:#404040;fill-opacity:0.89201882;stroke:none;stroke-width:7.7436676;stroke-linecap:round;stroke-linejoin:bevel;stroke-miterlimit:4;stroke-dasharray:none;stroke-dashoffset:0;stroke-opacity:1"
         id="rect15246"
         width="72"
         height="8.0000038"
         x="-120"
         y="80"
         rx="0"
         ry="0"
         transform="scale(-1,1)" />
      <path
         sodipodi:nodetypes="cccccccccc"
         id="path3356"
         d="M 19.936305,24.028949 -0.051923,48.03876 3.924872,52.011643 15.946207,44.207003 16.000007,64.004 24,64 23.9462,44.203005 l 11.827727,7.793019 4.174158,-3.976891 z"
         style="fill:url(#linearGradient3358);fill-opacity:1;fill-rule:evenodd;stroke:none"
         inkscape:connector-curvature="0" />
      <path
         inkscape:connector-curvature="0"
         style="fill:url(#linearGradient18974);fill-opacity:1;fill-rule:evenodd;stroke:none"
         d="M 19.990105,92.174056 0.001877,68.164245 l 3.976795,-3.972883 12.021335,7.80464 0.0538,-19.796997 7.999993,0.004 L 24,72 l 11.827727,-7.793019 4.174158,3.976891 z"
         id="path18972"
         sodipodi:nodetypes="cccccccccc" />
    </g>
  </g>
</svg>
